icons/src/scalable/default/mimetypes/application-vnd.snap-symbolic.svg

<svg version="1.1" viewBox="0 0 16 16" xmlns="http://www.w3.org/2000/svg">
 <g fill="#bebebe">
  <g>
   <path d="m3 3 5 2v3l-5-5z"/>
   <path d="M7.8,9.2L4,13L6.533,7.933L7.8,9.2Z"/>
   <path d="M9,6L9,8L10.429,6.571L9,6Z"/>
   <path d="m9 5h3.5l0.5 1.6-4-1.6z"/>
  </g>
  <path d="m15 2c0-1.104-0.896-2-2-2h-10c-1.104 0-2 0.896-2 2v12c0 1.104 0.896 2 2 2h10c1.104 0 2-0.896 2-2v-12zm-1 0v12c0 0.552-0.448 1-1 1h-10c-0.552 0-1-0.448-1-1v-12c0-0.552 0.448-1 1-1h10c0.552 0 1 0.448 1 1z"/>
 </g>
</svg>

<?xml version="1.0" encoding="UTF-8" standalone="no"?>
<!DOCTYPE svg PUBLIC "-//W3C//DTD SVG 1.1//EN" "http://www.w3.org/Graphics/SVG/1.1/DTD/svg11.dtd">
<svg width="100%" height="100%" viewBox="0 0 16 16" version="1.1" xmlns="http://www.w3.org/2000/svg" xmlns:xlink="http://www.w3.org/1999/xlink" xml:space="preserve" xmlns:serif="http://www.serif.com/" style="fill-rule:evenodd;clip-rule:evenodd;stroke-linejoin:round;stroke-miterlimit:2;">
    <path d="M3,3L8,5L8,8L3,3Z" style="fill:#bebebe;fill-rule:nonzero;"/>
    <path d="M7.8,9.2L4,13L6.533,7.933L7.8,9.2Z" style="fill:#bebebe;fill-rule:nonzero;"/>
    <path d="M9,6L9,8L10.429,6.571L9,6Z" style="fill:#bebebe;fill-rule:nonzero;"/>
    <path d="M9,5L12.5,5L13,6.6L9,5Z" style="fill:#bebebe;fill-rule:nonzero;"/>
    <path d="M15,2C15,0.896 14.104,0 13,0L3,0C1.896,0 1,0.896 1,2C1,2 1,14 1,14C1,15.104 1.896,16 3,16L13,16C14.104,16 15,15.104 15,14L15,2ZM14,2L14,14C14,14.552 13.552,15 13,15C13,15 3,15 3,15C2.448,15 2,14.552 2,14L2,2C2,1.448 2.448,1 3,1L13,1C13.552,1 14,1.448 14,2Z" style="fill:#bebebe;"/>
</svg>
